X:21
T:Ground Zero
R:reel
C: 1977, 2010 L.E. McCullough
M:4/4 
L:1/8
K:Dmix
|:ADFA dfed|c~G3 AcGE|ADFA dcAB|~c3G EDEG|
Adfe dcAB|cedc A~G3|~A2dB c~G3|AcGE EDD2:|
|:fdeg fedB|c~G3 AcGE|~f3g adfa|gecd ed d2|
~a3b a~f3|edef gfeg|=fedc AGEG|~A2GE EDD2:|
|:~A2dA fAdA|~G2cG AGEG|~A2dA ~f3g|edcd ~e3G|
~A2dA fAdA|G~g3 edce|fedc A~G3|~A2GE EDD2:|
<end>
<start>
